X:1
T:James O. Forbes Esq. of Corse
T:James O. Forbes Esq. of Corse
T:Peter Milne
C:Peter Milne
L:1/8
Q:1/4=120
M:4/4
K:D
V:1 treble 
V:1
"^Slowly" G | (F>A)D>F (G>B)(E>G) | F<AB>c d3 c | (B>d)(A>d) (G>d)(F>d) | %4
 (E>e)(e>d) c/d/c/B/ A/B/A/G/ | (F>A)(D>F) (G>B)(E>G) | F<A{de} f>e d3 c | (B>d)(A>d) (G>d)(F>G) | %8
 (F>D){F}(E>C) (D2 D) || g | (f/g/a/g/)f<d B<dg<b | A<df<a A<ce>g | f/g/a/g/ f<d B<dg<b | %13
 a<d{d}f>e (d2 d)g | (f/g/a/g/) f<d B<dg<b | A<df<a A<ce>g | a<d{d}f>e (d2 d)g | %17
 (f/g/a/g/) f<d B<dg<b | A<df<a A<ce>g | (3fed (3cde (3dAG (3FGA | (3Bcd (3cde f<d d || %21

